X: 204
T: Tiaoyue ge
L: 1/16
M: 5/8
K: D
A A d f d f z A z f [I:setbarnb 1]| 
d d A f d f z A z f | 
f f f d d f z A z f | 
d A d d d f z A z f | 
A A d d d f z A z f | 
d A d f d f z A z f | 
A d A f d f z A z f | 
d A d f d f z A z f | 
A d d A f f z A z f | 
f f A A d f z2 z2 |]

@@@ Tune index: 8872
